X: 10992
T: Drunken Landlady, The
R: reel
M: 4/4
K: Edorian
|:BE E2 BAFA|BE E2 BAFB|ABAF D3E|FAAd BAFA|
BE E2 BAFA|B2 dB BAFB|A2 Bc dfec|dBAF E4:|
|:Beed e2 de|f2 df efdB|ABAF D3E|FAAd BAFA|
Beed e2 de|f2 df efdB|A2 Bc dfec|dBAF E4:|

